X: 188
T:Chuir i Gluin Air a Bhodach
T:She Put a Knee On the Old Man
T:Chuir i Gluin Air a Bhodach
S:Derek Hoy
Z:https://nigelgatherer.com/
M:4/4
L:1/8
K:A
A>B d2 B<d e2 | A>B d2 e>d B<G | A>B d2  B<d e2 | d<B B2 A>B A<G :|
e>f g2 f>g a2 | e>f g2 a>g f<d | e>f g2  f>g a2 | e<d B2 A>B A<G  |
e>f g2 f>g a2 | e>f g2 a>g f<d | e>f g>e f<d e2 | d<B B2 A>B A<G |]

